static/assets/images/exchanges/bluemove.svg

<svg width="256" height="256" viewBox="0 0 256 256" fill="none" xmlns="http://www.w3.org/2000/svg">
<path d="M127.679 3.71587e-06C102.424 0.00244375 77.7367 7.51205 56.7391 21.5792C35.7416 35.6463 19.3769 55.6391 9.7147 79.0293C0.0524596 102.42 -2.47343 128.157 2.45647 152.986C7.38636 177.815 19.5506 200.621 37.4109 218.521C55.2712 236.42 78.0254 248.608 102.796 253.544C127.567 258.479 153.241 255.941 176.573 246.25C199.904 236.559 219.845 220.15 233.873 199.098C247.901 178.047 255.387 153.298 255.383 127.981C255.383 111.172 252.08 94.5274 245.662 78.998C239.244 63.4685 229.836 49.3586 217.978 37.474C206.119 25.5894 192.041 16.163 176.547 9.73316C161.054 3.3033 144.448 -0.00404673 127.679 3.71587e-06ZM193.989 186.082C185.375 195.747 175.371 201.397 164.197 202.821C145.763 205.122 132.743 196.808 122.283 190.06C113.275 184.324 106.63 181.092 98.3791 181.092C96.8462 181.086 95.3146 181.185 93.7952 181.388C88.2945 182.054 82.9906 184.768 78.0498 189.363C74.4299 192.88 71.3042 196.874 68.7589 201.236L50.8109 192.268C53.8129 186.931 57.3684 181.926 61.4185 177.336C70.2172 167.406 80.2587 161.67 91.2109 160.27C109.201 157.972 121.878 166.112 133.095 173.315C133.111 173.325 133.127 173.335 133.143 173.345C143.788 180.186 151.097 183.448 161.557 182.104C166.953 181.401 172.294 178.656 177.303 174.061C180.961 170.565 184.126 166.585 186.71 162.231L204.585 171.144C201.588 176.479 198.041 181.484 194.002 186.076L193.989 186.082ZM193.989 132.527C185.375 142.198 175.371 147.823 164.197 149.285C145.763 151.586 132.743 143.234 122.283 136.518C113.275 130.701 106.63 127.513 98.3791 127.513C96.8463 127.522 95.3155 127.625 93.7952 127.821C88.2945 128.518 83.0276 131.263 78.0498 135.778C74.4348 139.301 71.3097 143.297 68.7589 147.657L50.8047 138.713C53.8032 133.347 57.3588 128.313 61.4123 123.695C70.211 113.783 80.2526 108.06 91.2048 106.672C109.221 104.377 121.908 112.507 133.137 119.71C143.781 126.6 151.091 129.807 161.551 128.469C166.947 127.79 172.288 125.027 177.296 120.432C180.957 116.952 184.123 112.984 186.704 108.639L204.622 117.57C201.624 122.94 198.059 127.97 193.989 132.576V132.527ZM193.989 78.9538C185.375 88.6187 175.371 94.2807 164.197 95.7055C145.763 97.9999 132.743 89.6857 122.283 82.932C113.275 77.1898 106.63 73.9579 98.3791 73.9579C96.8457 73.9498 95.3137 74.0529 93.7952 74.2663C88.2945 74.9694 83.0276 77.6462 78.0498 82.2289C74.4348 85.7524 71.3097 89.748 68.7589 94.108L50.7924 85.1339C53.8077 79.786 57.3644 74.7636 61.4062 70.1462C70.2295 60.2346 80.2403 54.5232 91.1986 53.0861C109.208 50.7917 121.926 58.9578 133.125 66.1618C143.769 73.0512 151.079 76.2585 161.539 74.92C166.935 74.2231 172.276 71.4784 177.284 66.8834C180.938 63.388 184.103 59.4128 186.692 55.066L204.615 64.0216C201.608 69.3756 198.046 74.3971 193.989 79.0031V78.9538Z" fill="#397BFF"/>
<path d="M193.989 186.082C185.375 195.747 175.371 201.397 164.197 202.821C145.763 205.122 132.743 196.808 122.283 190.06C113.275 184.324 106.63 181.092 98.3791 181.092C96.8462 181.086 95.3146 181.185 93.7952 181.388C88.2945 182.054 82.9906 184.768 78.0498 189.363C74.4299 192.88 71.3042 196.874 68.7589 201.236L50.8109 192.268C53.8129 186.931 57.3684 181.926 61.4185 177.336C70.2172 167.406 80.2587 161.67 91.2109 160.27C109.201 157.972 121.878 166.112 133.095 173.315L133.143 173.345C143.788 180.186 151.097 183.448 161.557 182.104C166.953 181.401 172.294 178.656 177.303 174.061C180.961 170.565 184.126 166.585 186.71 162.231L204.585 171.144C201.588 176.479 198.041 181.484 194.002 186.076L193.989 186.082Z" fill="white"/>
<path d="M193.989 132.527C185.375 142.198 175.371 147.823 164.197 149.285C145.763 151.586 132.743 143.234 122.283 136.518C113.275 130.701 106.63 127.513 98.3791 127.513C96.8463 127.522 95.3155 127.625 93.7952 127.821C88.2945 128.518 83.0276 131.263 78.0498 135.778C74.4348 139.301 71.3097 143.297 68.7589 147.657L50.8047 138.713C53.8032 133.347 57.3588 128.313 61.4123 123.695C70.211 113.783 80.2526 108.06 91.2048 106.672C109.221 104.377 121.908 112.507 133.137 119.71C143.781 126.6 151.091 129.807 161.551 128.469C166.947 127.79 172.288 125.027 177.296 120.432C180.957 116.952 184.123 112.984 186.704 108.639L204.622 117.57C201.624 122.94 198.059 127.97 193.989 132.576V132.527Z" fill="white"/>
<path d="M193.989 78.9538C185.375 88.6187 175.371 94.2807 164.197 95.7055C145.763 97.9999 132.743 89.6857 122.283 82.932C113.275 77.1898 106.63 73.9579 98.3791 73.9579C96.8457 73.9498 95.3137 74.0529 93.7952 74.2663C88.2945 74.9694 83.0276 77.6462 78.0498 82.2289C74.4348 85.7524 71.3097 89.748 68.7589 94.108L50.7924 85.1339C53.8077 79.786 57.3644 74.7636 61.4062 70.1462C70.2295 60.2346 80.2403 54.5232 91.1986 53.0861C109.208 50.7917 121.926 58.9578 133.125 66.1618C143.769 73.0512 151.079 76.2585 161.539 74.92C166.935 74.2231 172.276 71.4784 177.284 66.8834C180.938 63.388 184.103 59.4128 186.692 55.066L204.615 64.0216C201.608 69.3756 198.046 74.3971 193.989 79.0031V78.9538Z" fill="white"/>
</svg>

<svg xmlns="http://www.w3.org/2000/svg" fill="none" viewBox="0 0 256 256"><path fill="#397BFF" d="M127.679 0a127.47 127.47 0 0 0-70.94 21.58A127.93 127.93 0 0 0 9.715 79.03a128.3 128.3 0 0 0-7.259 73.956 128.1 128.1 0 0 0 34.955 65.535 127.6 127.6 0 0 0 65.385 35.023 127.4 127.4 0 0 0 73.777-7.294 127.76 127.76 0 0 0 57.3-47.152 128.2 128.2 0 0 0 21.51-71.117 128.3 128.3 0 0 0-9.721-48.983 128 128 0 0 0-27.684-41.524 127.7 127.7 0 0 0-41.431-27.74A127.4 127.4 0 0 0 127.679 0m66.31 186.082c-8.614 9.665-18.618 15.315-29.792 16.739-18.434 2.301-31.454-6.013-41.914-12.761-9.008-5.736-15.653-8.968-23.904-8.968a34 34 0 0 0-4.584.296c-5.5.666-10.804 3.38-15.745 7.975a55.7 55.7 0 0 0-9.291 11.873l-17.948-8.968a87 87 0 0 1 10.608-14.932c8.798-9.93 18.84-15.666 29.792-17.066 17.99-2.298 30.667 5.842 41.884 13.045l.048.03c10.645 6.841 17.954 10.103 28.414 8.759 5.396-.703 10.737-3.448 15.746-8.043a55.7 55.7 0 0 0 9.407-11.83l17.875 8.913a87.5 87.5 0 0 1-10.583 14.932zm0-53.555c-8.614 9.671-18.618 15.296-29.792 16.758-18.434 2.301-31.454-6.051-41.914-12.767-9.008-5.817-15.653-9.005-23.904-9.005a38 38 0 0 0-4.584.308c-5.5.697-10.767 3.442-15.745 7.957a56.3 56.3 0 0 0-9.291 11.879l-17.954-8.944a87.4 87.4 0 0 1 10.607-15.018c8.799-9.912 18.84-15.635 29.793-17.023 18.016-2.295 30.703 5.835 41.932 13.038 10.644 6.89 17.954 10.097 28.414 8.759 5.396-.679 10.737-3.442 15.745-8.037a55 55 0 0 0 9.408-11.793l17.918 8.931a86 86 0 0 1-10.633 15.006zm0-53.573c-8.614 9.665-18.618 15.327-29.792 16.752-18.434 2.294-31.454-6.02-41.914-12.774-9.008-5.742-15.653-8.974-23.904-8.974a32 32 0 0 0-4.584.308c-5.5.703-10.767 3.38-15.745 7.963a56.3 56.3 0 0 0-9.291 11.879l-17.967-8.974a89.5 89.5 0 0 1 10.614-14.988C70.23 60.235 80.24 54.523 91.2 53.086c18.009-2.294 30.727 5.872 41.926 13.076 10.644 6.89 17.954 10.096 28.414 8.758 5.396-.697 10.737-3.442 15.745-8.037a56 56 0 0 0 9.408-11.817l17.923 8.956a87.5 87.5 0 0 1-10.626 14.981z"/><path fill="#fff" d="M193.989 186.082c-8.614 9.665-18.618 15.315-29.792 16.739-18.434 2.301-31.454-6.013-41.914-12.761-9.008-5.736-15.653-8.968-23.904-8.968a34 34 0 0 0-4.584.296c-5.5.666-10.804 3.38-15.745 7.975a55.7 55.7 0 0 0-9.291 11.873l-17.948-8.968a87 87 0 0 1 10.608-14.932c8.798-9.93 18.84-15.666 29.792-17.066 17.99-2.298 30.667 5.842 41.884 13.045l.048.03c10.645 6.841 17.954 10.103 28.414 8.759 5.396-.703 10.737-3.448 15.746-8.043a55.7 55.7 0 0 0 9.407-11.83l17.875 8.913a87.5 87.5 0 0 1-10.583 14.932zm0-53.555c-8.614 9.671-18.618 15.296-29.792 16.758-18.434 2.301-31.454-6.051-41.914-12.767-9.008-5.817-15.653-9.005-23.904-9.005a38 38 0 0 0-4.584.308c-5.5.697-10.767 3.442-15.745 7.957a56.3 56.3 0 0 0-9.291 11.879l-17.954-8.944a87.4 87.4 0 0 1 10.607-15.018c8.799-9.912 18.84-15.635 29.793-17.023 18.016-2.295 30.703 5.835 41.932 13.038 10.644 6.89 17.954 10.097 28.414 8.759 5.396-.679 10.737-3.442 15.745-8.037a55 55 0 0 0 9.408-11.793l17.918 8.931a86 86 0 0 1-10.633 15.006zm0-53.573c-8.614 9.665-18.618 15.327-29.792 16.752-18.434 2.294-31.454-6.02-41.914-12.774-9.008-5.742-15.653-8.974-23.904-8.974a32 32 0 0 0-4.584.308c-5.5.703-10.767 3.38-15.745 7.963a56.3 56.3 0 0 0-9.291 11.879l-17.967-8.974a89.5 89.5 0 0 1 10.614-14.988C70.23 60.235 80.24 54.523 91.2 53.086c18.009-2.294 30.727 5.872 41.926 13.076 10.644 6.89 17.954 10.096 28.414 8.758 5.396-.697 10.737-3.442 15.745-8.037a56 56 0 0 0 9.408-11.817l17.923 8.956a87.5 87.5 0 0 1-10.626 14.981z"/></svg>
